X: 225
T:Inter natos mulierum / Fuit homo missus a Deo
N: Derived from Jos1910-Inter_natos_mulierum.krn
C: Josquin des Prez
%%abc-version 2.0
%%abcx-abcm2ps-target-version 5.9.1 (29 Sep 2008)
%%abc-creator hum2abc beta
%%abcx-conversion-date 2019/02/12 16:15:49
%%abc-edited-by Jesse Rodin
%%abc-edited-by Victoria Chang
%%abcx-initial-encoding-date 2011/03/21/
%%humdrum-veritas 2851530860
%%humdrum-veritas-data 2586654364
%%linebreak <none>
%%barnumbers 0
L: 1/4
M: 3/1
Q: 1/2=120
V: 1 clef=treble
V: 2 clef=treble-8
V: 3 clef=treble-8
V: 4 clef=treble-8
V: 5 clef=bass
V: 6 clef=bass
K: F
[V:1] z12 | 
[V:2] c8c4 | 
[V:3] z4z4F4- | 
[V:4] F6G2A4 | 
[V:5] z12 | 
[V:6] F,,8F,,4 | 
[V:1] F8F4 | 
[V:2] d8d4 | 
[V:3] F4F4B4 | 
[V:4] B3cd2D3EF2 | 
[V:5] z12 | 
[V:6] B,,8B,,4 | 
[V:1] B4B2B3AG2- | 
[V:2] d6d2d4 | 
[V:3] B8B4 | 
[V:4] G8G4 | 
[V:5] z12 | 
[V:6] G,,8G,,4 | 
[V:1] GFEDC2F4E2 | 
[V:2] c12 | 
[V:3] G4A4G2c2- | 
[V:4] E2C2E2F2G4 | 
[V:5] C,8C,4 | 
[V:6] C,4A,,2F,,2C,4 | 
[V:1] F2c2A2c3BAG | 
[V:2] c8f4 | 
[V:3] cBAGF4c4 | 
[V:4] A12 | 
[V:5] F,8F,4 | 
[V:6] F,,12 | 
[V:1] F2B3ABcd4 | 
[V:2] f8d4 | 
[V:3] d4d3ef4 | 
[V:4] B8B4 | 
[V:5] D,8D,4 | 
[V:6] B,,12 | 
[V:1] z2d3cc4=B2 | 
[V:2] d2g4fed2g2- | 
[V:3] z2B4c2d4 | 
[V:4] B4G4z2G2- | 
[V:5] G,8G,4 | 
[V:6] G,,12 | 
[V:1] c8z4 | 
[V:2] gfedcdefg/f/e/d/e2 | 
[V:3] c8c4 | 
[V:4] G2c4BAG4 | 
[V:5] C,8C,4 | 
[V:6] z12 | 
[V:1] c6c2c4 | 
[V:2] f8z4 | 
[V:3] A2c3BAGA2F2 | 
[V:4] F8z4 | 
[V:5] C,6D,E,F,4 | 
[V:6] F,,12- | 
[V:1] A2c3BAGA4 | 
[V:2] f8c3d | 
[V:3] c8c4 | 
[V:4] F8F4 | 
[V:5] C,8z2F,2 | 
[V:6] F,,8F,,4 | 
[V:1] G12 | 
[V:2] e3fg6d2 | 
[V:3] z2c4G2B4- | 
[V:4] G8G4 | 
[V:5] E,2C,2E,3F,G,4 | 
[V:6] C,8G,,4 | 
[V:1] z4z4A4 | 
[V:2] f6edc4 | 
[V:3] B2A3GG4^F2 | 
[V:4] z4z4z2c2 | 
[V:5] D,4z4z4 | 
[V:6] z2D,2B,,2C,2A,,4 | 
[V:1] B3A/G/F2G4^F2 | 
[V:2] B2d4c2d2d2- | 
[V:3] G4z4z2A2 | 
[V:4] B4A2G2A4 | 
[V:5] z2G,2D,2E,2D,4 | 
[V:6] G,,4z4z4 | 
[V:1] G4z4A4 | 
[V:2] dcdef2g4^f2 | 
[V:3] B4A2G2A4 | 
[V:4] G2d4c2d4 | 
[V:5] G,,4z2C,2F,2D,2- | 
[V:6] z2G,2D,2E,2D,4 | 
[V:1] B4G2A4GF | 
[V:2] g4z2c2d4 | 
[V:3] G4z4F4 | 
[V:4] z2d3cc4=B2 | 
[V:5] D,2G,2E,2F,2D,4 | 
[V:6] G,,4z4z4 | 
[V:1] E2G3FF4E2 | 
[V:2] G4d4c4- | 
[V:3] G2C2F4C2G2 | 
[V:4] c4A2B2G4 | 
[V:5] C,4z2D,2E,2C,2- | 
[V:6] z2C,2D,2B,,2C,4 | 
[V:1] F12 | 
[V:2] c2B2c4F4 | 
[V:3] A2F3GA2D4 | 
[V:4] F8z4 | 
[V:5] C,A,,D,2C,4z2F,2 | 
[V:6] F,,2B,,4A,,2B,,2D,2 | 
[V:1] z12 | 
[V:2] z12 | 
[V:3] z12 | 
[V:4] c8c4 | 
[V:5] E,2A,4G,2A,2C2 | 
[V:6] C,2F,4E,2F,2A,2 | 
[V:1] z12 | 
[V:2] z12 | 
[V:3] z12 | 
[V:4] d4c2c4=B2 | 
[V:5] B,2G,4A,2z2F,2 | 
[V:6] G,4E,2F,2D,4 | 
[V:1] z4z4F4 | 
[V:2] z2G2E2F2A4 | 
[V:3] z12 | 
[V:4] c12- | 
[V:5] G,4G,2A,4G,F, | 
[V:6] C,6F,,2F,,4 | 
[V:1] G4G2A4GF | 
[V:2] G2c3BAGA4 | 
[V:3] z4z4z2F2 | 
[V:4] c12 | 
[V:5] E,3D,E,2F,4E,D, | 
[V:6] C,6F,,2F,,4 | 
[V:1] E4z4F4 | 
[V:2] z2G2E2F2A4 | 
[V:3] G4G2A4GF | 
[V:4] c8c4 | 
[V:5] C,6F,,2F,,4 | 
[V:6] z12 | 
[V:1] G6FED4 | 
[V:2] G4z4z2d2 | 
[V:3] E3FG2A2D4 | 
[V:4] c8B4 | 
[V:5] C,3D,E,2F,2G,4 | 
[V:6] z4z4G,,4 | 
[V:1] z4z4B4 | 
[V:2] c4c2d4e2 | 
[V:3] z12 | 
[V:4] A6GFG4 | 
[V:5] E,4F,4B,,4 | 
[V:6] A,,4A,,2B,,4A,,G,, | 
[V:1] A2c3BA4G2 | 
[V:2] f4e2f2d4 | 
[V:3] F3GA2D2G4 | 
[V:4] A3Bc2d2B4 | 
[V:5] C,4z4z4 | 
[V:6] F,,4z4z4 | 
[V:1] A12 | 
[V:2] e2c2d2f4e2 | 
[V:3] E2F4EDA4 | 
[V:4] A12- | 
[V:5] z12 | 
[V:6] A,,4D,2D,4C,2 | 
[V:1] A6F2G4 | 
[V:2] d2cBA2d4^c2 | 
[V:3] z12 | 
[V:4] A8G4 | 
[V:5] z12 | 
[V:6] D,2F,4E,D,E,4 | 
[V:1] F4A4B4 | 
[V:2] d6f4ed | 
[V:3] z12 | 
[V:4] A2B3AA4G2 | 
[V:5] z4D,8 | 
[V:6] D,4D,3C,B,,4 | 
[V:1] c4z2A4G2 | 
[V:2] c4d6e2 | 
[V:3] z12 | 
[V:4] A8B4 | 
[V:5] E,2F,4E,D,G,4 | 
[V:6] A,,4D,4G,,4 | 
[V:1] A4F2G2A4- | 
[V:2] f6edc2f2- | 
[V:3] z12 | 
[V:4] A4B4A2F2- | 
[V:5] F,2D,4E,2F,4 | 
[V:6] z12 | 
[V:1] A2G3FD2A4 | 
[V:2] f2e4d4c2 | 
[V:3] z12 | 
[V:4] F2G2A2B2A4 | 
[V:5] z12 | 
[V:6] z12 | 
[V:1] B3AF3GABc2- | 
[V:2] g3fd2f4ed | 
[V:3] G2B3AF3GAB | 
[V:4] z12 | 
[V:5] z12 | 
[V:6] z12 | 
[V:1] cBA4G2z2c2- | 
[V:2] e2f4edc3d | 
[V:3] c2d2B4A4 | 
[V:4] z12 | 
[V:5] z4z4z2A,2- | 
[V:6] z12 | 
[V:1] cBA2G3FE4 | 
[V:2] e2f2e2d4^c2 | 
[V:3] z4z4z2A2 | 
[V:4] z12 | 
[V:5] A,2F,2G,4A,4 | 
[V:6] z4z4A,,4 | 
[V:1] z2D2A2B2c4 | 
[V:2] d4z4z4 | 
[V:3] F2G2A2D4C2 | 
[V:4] z4z4A4 | 
[V:5] D,3E,F,2G,4^F,2 | 
[V:6] B,,4A,,2G,,2A,,4 | 
[V:1] B3A/G/F2G4F2 | 
[V:2] d4d2c2d4 | 
[V:3] D4z4z2A2 | 
[V:4] B4A2G2A4 | 
[V:5] G,4z2C,2F,2D,2- | 
[V:6] G,,4D,2E,2D,4 | 
[V:1] G4A6GF | 
[V:2] z2d2e2c2d4 | 
[V:3] B4G2c4B2 | 
[V:4] G4z4F4 | 
[V:5] D,2G,2E,2F,2D,4 | 
[V:6] G,,4z4z4 | 
[V:1] E2G3FF4E2 | 
[V:2] G4d4c4 | 
[V:3] c4A2B2G4 | 
[V:4] G2C2F4C2G2 | 
[V:5] C,4z2D,2E,2C,2 | 
[V:6] z2C,2D,2B,,2C,4 | 
[V:1] F2c4BAB4 | 
[V:2] z2c4f3ee2 | 
[V:3] F4C4z4 | 
[V:4] A3BcCc4B2 | 
[V:5] C,2F,4A,2G,4 | 
[V:6] F,,8z4 | 
[V:1] A2G3FF4E2 | 
[V:2] f2e2d4c4 | 
[V:3] z2c2A2B2G4 | 
[V:4] c4z4z2G2 | 
[V:5] F,2zC,F,2D,2E,2C,2- | 
[V:6] z2C,2D,2B,,2C,4 | 
[V:1] F12- | 
[V:2] c8F4 | 
[V:3] F12- | 
[V:4] A3BcCc4B2 | 
[V:5] C,2F,3G,A,2D,4 | 
[V:6] F,,8B,,4 | 
[V:1] F12- | 
[V:2] z2f4e2d4 | 
[V:3] F12- | 
[V:4] c2F3GA2D2F2- | 
[V:5] z2A,3B,C2F,3G, | 
[V:6] A,,2D,3C,A,,2B,,4 | 
[V:1] F12- | 
[V:2] c4A3Bc4- | 
[V:3] F12- | 
[V:4] FEC2D4C4 | 
[V:5] A,4z4A,4- | 
[V:6] F,,12- | 
[V:1] F12 ||  
[V:2] c12 ||  
[V:3] F12 ||  
[V:4] C12 ||  
[V:5] A,12 ||  
[V:6] F,,12 ||  
[V:1] [M:2/1]z8 | 
[V:2] [M:2/1]z8 | 
[V:3] [M:2/1]z8 | 
[V:4] [M:2/1]F8 | 
[V:5] [M:2/1]z4C,4- | 
[V:6] [M:2/1]F,,6G,,2 | 
[V:1] z8 | 
[V:2] z8 | 
[V:3] z8 | 
[V:4] F8 | 
[V:5] C,2D,3E,F,2- | 
[V:6] A,,2B,,3C,D,2 | 
[V:1] z8 | 
[V:2] z8 | 
[V:3] z8 | 
[V:4] G8 | 
[V:5] F,2E,D,E,4 | 
[V:6] C,4z4 | 
[V:1] z8 | 
[V:2] z8 | 
[V:3] z8 | 
[V:4] F8- | 
[V:5] z4C,4- | 
[V:6] F,,6G,,2 | 
[V:1] z8 | 
[V:2] z8 | 
[V:3] z8 | 
[V:4] F8 | 
[V:5] C,2D,4B,,2 | 
[V:6] A,,2B,,3C,D,2 | 
[V:1] z8 | 
[V:2] z8 | 
[V:3] z8 | 
[V:4] F8- | 
[V:5] D,3E,F,2B,,2 | 
[V:6] B,,2D,3E,F,2 | 
[V:1] z8 | 
[V:2] z8 | 
[V:3] z8 | 
[V:4] F8 | 
[V:5] C,2D,4C,B,, | 
[V:6] F,,2B,,4A,,G,, | 
[V:1] z8 | 
[V:2] z8 | 
[V:3] z8 | 
[V:4] F4E3F | 
[V:5] C,2D,2A,,2E,2- | 
[V:6] A,,2B,,2C,4- | 
[V:1] z8 | 
[V:2] z8 | 
[V:3] z8 | 
[V:4] G2A3GG2 | 
[V:5] E,2D,C,D,2E,2 | 
[V:6] C,2B,,A,,B,,2C,2 | 
[V:1] A8 | 
[V:2] F6G2 | 
[V:3] z4F4- | 
[V:4] A8 | 
[V:5] F,8- | 
[V:6] F,,8- | 
[V:1] A8 | 
[V:2] A2B2c2d2 | 
[V:3] F2G2A2B2 | 
[V:4] z8 | 
[V:5] F,8 | 
[V:6] F,,8 | 
[V:1] G8 | 
[V:2] e4d2e2- | 
[V:3] c4B2c2- | 
[V:4] z8 | 
[V:5] z8 | 
[V:6] z8 | 
[V:1] G8 | 
[V:2] e2dcd2e2 | 
[V:3] c2BAB2c2 | 
[V:4] z8 | 
[V:5] z8 | 
[V:6] z8 | 
[V:1] F8 | 
[V:2] c2d2c2d2- | 
[V:3] A2B2A2B2- | 
[V:4] z8 | 
[V:5] z8 | 
[V:6] z8 | 
[V:1] D3EF2G2- | 
[V:2] d2cBc2d2- | 
[V:3] B2AGA2B2- | 
[V:4] z8 | 
[V:5] z8 | 
[V:6] z8 | 
[V:1] GFF4E2 | 
[V:2] dcc4B2 | 
[V:3] BAGFG4 | 
[V:4] z8 | 
[V:5] z4z2G,2 | 
[V:6] z8 | 
[V:1] F8 | 
[V:2] c4z2f2- | 
[V:3] F8 | 
[V:4] z4A4 | 
[V:5] A,2F,G,A,B,CA, | 
[V:6] z4F,4 | 
[V:1] z8 | 
[V:2] fed4c2 | 
[V:3] z4z2GA | 
[V:4] F4G4 | 
[V:5] B,2A,2z4 | 
[V:6] D,4E,4 | 
[V:1] F4D4 | 
[V:2] d8 | 
[V:3] Bcd3Dd2- | 
[V:4] F4B4 | 
[V:5] z8 | 
[V:6] D,4z4 | 
[V:1] E4D4 | 
[V:2] z4z2d2 | 
[V:3] d^c/=B/^c2d4 | 
[V:4] A4F2G2 | 
[V:5] A,,4D,4 | 
[V:6] z4B,,4 | 
[V:1] z4B4 | 
[V:2] c2A2B3c | 
[V:3] z8 | 
[V:4] A4z4 | 
[V:5] E,2F,4E,2 | 
[V:6] A,,2F,,2G,,4 | 
[V:1] A2F2G4 | 
[V:2] def4e2 | 
[V:3] z2A2B2c2 | 
[V:4] z8 | 
[V:5] F,4z4 | 
[V:6] F,,4z4 | 
[V:1] F4G4 | 
[V:2] f2c2d2_e2 | 
[V:3] F4B4 | 
[V:4] z8 | 
[V:5] z8 | 
[V:6] z2F,4_E,2 | 
[V:1] F2F4E2 | 
[V:2] c2B2c4- | 
[V:3] A2F2G4 | 
[V:4] z8 | 
[V:5] z4z2G,2 | 
[V:6] F,2D,2C,4 | 
[V:1] F8 | 
[V:2] c4z2f2- | 
[V:3] F8 | 
[V:4] z4A4 | 
[V:5] A,2F,G,A,B,CA, | 
[V:6] z4F,4 | 
[V:1] z8 | 
[V:2] fed4^c2 | 
[V:3] z4z2GA | 
[V:4] F4G4 | 
[V:5] B,2A,2z4 | 
[V:6] D,4E,4 | 
[V:1] F4D4 | 
[V:2] d8 | 
[V:3] Bcd3Dd2- | 
[V:4] F4B4 | 
[V:5] z8 | 
[V:6] D,4z4 | 
[V:1] E4D4 | 
[V:2] z4z2d2 | 
[V:3] d^c/=B/^c2d4 | 
[V:4] A4F2G2 | 
[V:5] A,,4D,4 | 
[V:6] z4B,,4 | 
[V:1] z4B4 | 
[V:2] c2A2B3c | 
[V:3] z8 | 
[V:4] A4z4 | 
[V:5] E,2F,4E,2 | 
[V:6] A,,2F,,2G,,4 | 
[V:1] A2F2G4 | 
[V:2] def4e2 | 
[V:3] z2A2B2c2 | 
[V:4] z8 | 
[V:5] F,4z4 | 
[V:6] F,,4z4 | 
[V:1] F4G4 | 
[V:2] f2c2d2_e2 | 
[V:3] F4B4 | 
[V:4] z8 | 
[V:5] z8 | 
[V:6] z2F,4_E,2 | 
[V:1] F2F4E2 | 
[V:2] c2B2c4 | 
[V:3] A2F2G4 | 
[V:4] z4G4 | 
[V:5] z4E,4 | 
[V:6] F,2D,2C,4 | 
[V:1] F4z4 | 
[V:2] z2c4B2 | 
[V:3] F8 | 
[V:4] A4F4 | 
[V:5] C,2C,2D,4 | 
[V:6] F,,4z2F,2- | 
[V:1] c3BAGA2- | 
[V:2] c8 | 
[V:3] z4c4 | 
[V:4] G4A4 | 
[V:5] C,4z4 | 
[V:6] F,2E,2F,4 | 
[V:1] AGG4F2 | 
[V:2] z8 | 
[V:3] B2G2A2B2- | 
[V:4] B2c2d4- | 
[V:5] z2C,2F,4 | 
[V:6] G,2E,2D,4 | 
[V:1] G4z2A2 | 
[V:2] z8 | 
[V:3] B2AGFEGF | 
[V:4] d2c6 | 
[V:5] D,2E,2C,4 | 
[V:6] B,,2C,2A,,4 | 
[V:1] B4c2A2- | 
[V:2] d4c2d2 | 
[V:3] G4z2A2 | 
[V:4] B3GA2F2 | 
[V:5] D,4z4 | 
[V:6] G,,4z4 | 
[V:1] AGG4^F2 | 
[V:2] B2AGA4 | 
[V:3] B2c2d3c | 
[V:4] G2E2D4 | 
[V:5] z4z2D,2 | 
[V:6] z8 | 
[V:1] G4G2A2- | 
[V:2] G2d2e2c2 | 
[V:3] BAG4c2- | 
[V:4] z8 | 
[V:5] G,4E,2F,2 | 
[V:6] z8 | 
[V:1] A2GFE2G2- | 
[V:2] d4G4 | 
[V:3] c2B2c4 | 
[V:4] F4G2E2 | 
[V:5] D,4C,4 | 
[V:6] z4z2C,2 | 
[V:1] GFF4E2 | 
[V:2] d4c4- | 
[V:3] A2B2G4 | 
[V:4] F4D2G2 | 
[V:5] z2D,2E,2C,2- | 
[V:6] D,2B,,2C,4 | 
[V:1] F8- | 
[V:2] c4z2d2- | 
[V:3] F8- | 
[V:4] A4D3E | 
[V:5] C,2F,3E,D,C, | 
[V:6] F,,4B,,4- | 
[V:1] F8- | 
[V:2] dcc4B2 | 
[V:3] F8- | 
[V:4] FGA2F3G | 
[V:5] B,,2C,2D,4 | 
[V:6] B,,2A,,2B,,4 | 
[V:1] F8 |]  
[V:2] c8 |]  
[V:3] F8 |]  
[V:4] A8 |]  
[V:5] C,8 |]  
[V:6] F,,8 |]  



